!!!COM: Corelli, Arcangelo
!!!OTL: 
!!!ONM: Opus 4, No. 8
!!!OMV: 2
!!!CDT: 1653/2/17/-1713/1/8/
!!!OCY: Italia
**kern	**kern	**kern	**kern
*clefC	*clefC	*clefG	*clefG
*k[]	*k[]	*k[]	*k[]
*a:	*a:	*a:	*a:
*M4/4	*M4/4	*M4/4	*M4/4
=1	=1	=1	=1
16d	16d	4.dd	4.ff
16D	16D	.	.
16F	16F	.	.
16E	16E	.	.
16D	16D	.	.
16E	16E	.	.
16F	16F	8dd	8ff
16G	16G	.	.
16A	16A	4cc#	4ee
16G	16G	.	.
16A	16A	.	.
16B-	16B-	.	.
16A	16A	4r	4r
16B-	16B-	.	.
16A	16A	.	.
16G	16G	.	.
=2	=2	=2	=2
16F	16F	4.ff	4.aa
16E	16E	.	.
16F	16F	.	.
16G	16G	.	.
16A	16A	.	.
16G	16G	.	.
16A	16A	8ff	8aa
16B-	16B-	.	.
16c	16c	4ee	4gg
16C	16C	.	.
16E	16E	.	.
16D	16D	.	.
16C	16C	4r	4r
16D	16D	.	.
16E	16E	.	.
16F	16F	.	.
=3	=3	=3	=3
16G	16G	4.gg	4.bb-
16F	16F	.	.
16G	16G	.	.
16A	16A	.	.
16B-	16B-	.	.
16A	16A	.	.
16B-	16B-	8gg	8bb-
16c	16c	.	.
16d	16d	4ff	4aa
16c	16c	.	.
16d	16d	.	.
16e	16e	.	.
16c	16c	4ee	[4aa
16B-	16B-	.	.
16c	16c	.	.
16d	16d	.	.
=4	=4	=4	=4
16B-	16B-	2dd	4aa]
16A	16A	.	.
16B-	16B-	.	.
16c	16c	.	.
16B-	16B-	.	4gg
16d	16d	.	.
16c	16c	.	.
16B-	16B-	.	.
16A	16A	2cc#	2aa
16G	16G	.	.
16A	16A	.	.
16B	16B	.	.
16A	16A	.	.
16B	16B	.	.
16c#	16c#	.	.
16A	16A	.	.
=5	=5	=5	=5
16d	16d	4.ff#	4.aa
16c	16c	.	.
16d	16d	.	.
16e	16e	.	.
16d	16d	.	.
16e	16e	.	.
16d	16d	8ff#	8aa
16c	16c	.	.
16B-	16B-	4gg	4bb-
16A	16A	.	.
16B-	16B-	.	.
16c	16c	.	.
16B-	16B-	4r	4r
16G	16G	.	.
16A	16A	.	.
16B-	16B-	.	.
=6	=6	=6	=6
16c	16c	4.ee	4.gg
16B-	16B-	.	.
16c	16c	.	.
16d	16d	.	.
16c	16c	.	.
16d	16d	.	.
16c	16c	8ee	8gg
16B-	16B-	.	.
16A	16A	4ff	4aa
16G	16G	.	.
16A	16A	.	.
16B-	16B-	.	.
16A	16A	4r	4r
16F	16F	.	.
16G	16G	.	.
16A	16A	.	.
=7	=7	=7	=7
16B-	16B-	4.dd	4.ff
16A	16A	.	.
16B-	16B-	.	.
16c	16c	.	.
16d	16d	.	.
16c	16c	.	.
16d	16d	8gg	8bb-
16B-	16B-	.	.
16c	16c	4ee	4gg
16d	16d	.	.
16c	16c	.	.
16B-	16B-	.	.
16A	16A	4ff	4aa
16G	16G	.	.
16A	16A	.	.
16F	16F	.	.
=8	=8	=8	=8
16B-	16B-	4.ff	4.gg
16A	16A	.	.
16B-	16B-	.	.
16G	16G	.	.
16c	16c	.	.
16B-	16B-	.	.
16c	16c	8ee	8gg
16C	16C	.	.
16F	16F	4ff	4aa
16E	16E	.	.
16F	16F	.	.
16G	16G	.	.
16A	16A	4ff	4aa
16G	16G	.	.
16A	16A	.	.
16B-	16B-	.	.
=9	=9	=9	=9
16c	16c	4r	4r
16B	16B	.	.
16c	16c	.	.
16d	16d	.	.
16e	16e	4ee	4gg
16d	16d	.	.
16e	16e	.	.
16c#	16c#	.	.
16d	16d	4r	4r
16A	16A	.	.
16B	16B	.	.
16c	16c	.	.
16d	16d	4dd	4ff
16c	16c	.	.
16B	16B	.	.
16A	16A	.	.
=10	=10	=10	=10
16G#	16G#	4r	4r
16E	16E	.	.
16F#	16F#	.	.
16G#	16G#	.	.
16A	16A	2cc	2ee
16AA	16AA	.	.
16BB	16BB	.	.
16C	16C	.	.
16D	16D	.	.
16A	16A	.	.
16B	16B	.	.
16c	16c	.	.
16d	16d	8b	8dd
16D	16D	.	.
16F	16F	8a	8cc
16D	16D	.	.
=11	=11	=11	=11
16E	16E	4g#	4b
16F	16F	.	.
16E	16E	.	.
16D	16D	.	.
16C	16C	8r	8r
16D	16D	.	.
16E	16E	8cc	8ee
16C	16C	.	.
16D	16D	8f#	4dd
16C	16C	.	.
16D	16D	8g#	.
16E	16E	.	.
16F	16F	[4a	8cc
16E	16E	.	.
16F	16F	.	8b
16D	16D	.	.
=12	=12	=12	=12
8E	8E	4a]	4cc
8AA	8AA	.	.
8E	8E	4g#	4b
8EE	8EE	.	.
2AA	2AA	2a	2a
=13	=13	=13	=13
16A	16A	4.cc#	4.ee
16G	16G	.	.
16A	16A	.	.
16B-	16B-	.	.
16A	16A	.	.
16B-	16B-	.	.
16A	16A	8cc#	8ee
16G	16G	.	.
16F	16F	4dd	4ff
16G	16G	.	.
16F	16F	.	.
16E	16E	.	.
16D	16D	4r	4r
16E	16E	.	.
16F	16F	.	.
16D	16D	.	.
=14	=14	=14	=14
16c	16c	4.ee	4.gg
16B-	16B-	.	.
16c	16c	.	.
16d	16d	.	.
16c	16c	.	.
16d	16d	.	.
16c	16c	8ee	8gg
16B-	16B-	.	.
16A	16A	4ff	4aa
16B-	16B-	.	.
16A	16A	.	.
16G	16G	.	.
16F	16F	8r	8r
16G	16G	.	.
16A	16A	8aa	8ccc
16F	16F	.	.
=15	=15	=15	=15
16G	16G	4gg	4bb-
16F	16F	.	.
16G	16G	.	.
16A	16A	.	.
16B-	16B-	8r	8r
16A	16A	.	.
16B-	16B-	8gg	8bb-
16c	16c	.	.
16d	16d	4ff	4aa
16c	16c	.	.
16d	16d	.	.
16e	16e	.	.
16f	16f	8r	8r
16F	16F	.	.
16G	16G	8aa	8ccc
16A	16A	.	.
=16	=16	=16	=16
16B-	16B-	16dd	8bb-
16c	16c	16ee	.
16d	16d	8ff	8aa
16B-	16B-	.	.
16c	16c	8.ff	8.gg
16B-	16B-	.	.
16c	16c	.	.
16C	16C	16ee	16gg
16F	16F	2ff	2aa
16G	16G	.	.
16A	16A	.	.
16B-	16B-	.	.
16c	16c	.	.
16d	16d	.	.
16c	16c	.	.
16B-	16B-	.	.
=17	=17	=17	=17
16A	16A	4.ff	4.aa
16G	16G	.	.
16F	16F	.	.
16E	16E	.	.
16F	16F	.	.
16G	16G	.	.
16A	16A	8ff	8aa
16B-	16B-	.	.
16c	16c	4ee	4gg
16C	16C	.	.
16E	16E	.	.
16D	16D	.	.
16C	16C	4r	4r
16D	16D	.	.
16E	16E	.	.
16F	16F	.	.
=18	=18	=18	=18
16G	16G	4.gg	4.bb-
16F	16F	.	.
16G	16G	.	.
16A	16A	.	.
16B-	16B-	.	.
16A	16A	.	.
16B-	16B-	8gg	8bb-
16c	16c	.	.
16d	16d	4ff	4aa
16D	16D	.	.
16F	16F	.	.
16E	16E	.	.
16D	16D	4r	4r
16E	16E	.	.
16D	16D	.	.
16C	16C	.	.
=19	=19	=19	=19
16BB-	16BB-	4.dd	4.ff
16C	16C	.	.
16BB-	16BB-	.	.
16AA	16AA	.	.
16GG	16GG	.	.
16AA	16AA	.	.
16BB-	16BB-	8dd	8ff
16GG	16GG	.	.
16AA	16AA	4cc#	4ee
16BB	16BB	.	.
16C#	16C#	.	.
16AA	16AA	.	.
16F	16F	8r	8r
16G	16G	.	.
16A	16A	8ff	8aa
16B-	16B-	.	.
=20	=20	=20	=20
16c	16c	4ee	4gg
16C	16C	.	.
16E	16E	.	.
16C	16C	.	.
16G	16G	8r	8r
16A	16A	.	.
16B-	16B-	8gg	8bb-
16c	16c	.	.
16d	16d	4ff	4aa
16D	16D	.	.
16F	16F	.	.
16D	16D	.	.
16G	16G	8r	8r
16GG	16GG	.	.
16BB-	16BB-	16ee	16gg
16GG	16GG	16dd	16ff
=21	=21	=21	=21
8AA	8AA	8cc#	8ee
8D	8D	8dd	8ff
8A	8A	8.dd	4ee
8AA	8AA	.	.
.	.	16cc#	.
16D	16D	4dd	4dd
16C#	16C#	.	.
16D	16D	.	.
16E	16E	.	.
16F	16F	8r	8r
16G	16G	.	.
16A	16A	8ff	8aa
16B-	16B-	.	.
=22	=22	=22	=22
16c	16c	4ee	4gg
16C	16C	.	.
16E	16E	.	.
16C	16C	.	.
16G	16G	8r	8r
16A	16A	.	.
16B-	16B-	8gg	8bb-
16c	16c	.	.
16d	16d	4ff	4aa
16D	16D	.	.
16F	16F	.	.
16D	16D	.	.
16G	16G	8r	8r
16GG	16GG	.	.
16BB-	16BB-	16ee	16gg
16GG	16GG	16dd	16ff
=23	=23	=23	=23
8AA	8AA	8cc#	8ee
8D	8D	8dd	8ff
8A	8A	8.dd	4ee
8AA	8AA	.	.
.	.	16cc#	.
2D	2D	2dd	2dd
==	==	==	==
*-	*-	*-	*-
!!!RWG: This file only contains pitch and duration data.
!!!RWG: Transposing instruments are not transposed.
!!!RWG: Durations of rests and tied notes may be interpreted.
!!!RWG: Key is interpreted using the Humdrum key tool.
!!!SCA: 
!!!YOR: Chrysander Edition
!!!AGN: chamber
!!!AFT: stage1
!!!ENC: F. Bennion
!!!END: 1997/04/15
!!!AST: baroque
!!!YEC: Copyright 1994, Center for Computer Assisted Research in the Humanities
!!!YEM: Rights to all derivative electronic formats reserved.
!!!YEM: Refer to licensing agreement for further details.
!!!YEN: United States of America
!!!EED: W.B. Hewlett
!!!KEY: 3789453795
!!!EMD: Converted from MuseData to Humdrum Aug 9, 1999, by Bret Aarden using muse2kern.
!!!VTS: 1793961605
